casedrop/img/search/icons/cube.svg

<svg width="18" height="18" fill="none" xmlns="http://www.w3.org/2000/svg"><path d="M9 18L.75 13.95v-9.9L9 0l8.25 4.05v9.9L9 18zm.75-9.3v7.275l6-2.925V5.7l-6 3zm-7.5 4.35l6 2.925V8.7l-6-3v7.35zm.9-8.55L9 7.425 14.85 4.5 9 1.5l-5.85 3z" fill="#fff"/></svg>

<svg width="18" height="18" viewBox="0 0 18 18" fill="none" xmlns="http://www.w3.org/2000/svg">
<path d="M9 18L0.75 13.95V4.05L9 0L17.25 4.05V13.95L9 18ZM9.75 8.7V15.975L15.75 13.05V5.7L9.75 8.7ZM2.25 13.05L8.25 15.975V8.7L2.25 5.7V13.05ZM3.15 4.5L9 7.425L14.85 4.5L9 1.5L3.15 4.5Z" fill="white"/>
</svg>
